X:1
T:Title
%%score ( 1 2 3 ) ( 4 5 )
L:1/8
Q:1/4=105
M:4/4
K:Eb
V:1 treble nm="Drawbar Organ, Soprano"
V:2 treble 
V:3 treble 
V:4 bass nm="Church Organ, Bass"
V:5 bass 
V:1
 c6 z2 | [CEc]2 [CEA]2 [=B,G]2 [B,F]2 | [CE]2 [CA]2 [_DB]2 [CA]2 | [_DG]6 z2 | _d6 z2 | %5
w: By~Fred~C.~Pullin|||||
 [_DG_d]2 [DGB]2 [DG=A]2 [DGB]2 | [CEc]2 [EA]2 [DG]2 [DA]2 | [_DEB]6 z2 | c6 z2 | %9
w: ||||
 [Cc]2 [CA]2 [=B,G]2 [B,F]2 | G4 z4 | [CE]6 z2 | E6 z2 | [Ee]2 [EB]2 [Ed]2 [Ec]2 | %14
w: |||||
 [EB]2 [DA]>D [DG]2 [DF]2 | E6 E2 | [EAce]2 [FA=Bd]2 [DG_B_d]2 [DA=B]2 | B2- [DB]2 [DF]2 [DG]>A | %18
w: ||||
 [_Dc]2 [DB]2 [DG]2 [DB]2 | E6 z2 | [_DE]2 [DF]2 [DG]2 [DE_d]2 | c3 B [CFA]2 [_E_Gc]2 | %22
w: ||||
 [EGB]2 [EGBe]2 [DG]2 [DF]2 | E6 E2 | [EAe]2 [FA=Bd]2 [DG_B_d]2 [DA=B]2 | B2- [DB]2 [DF]2 [DA]>A | %26
w: ||||
 [_Dc]2 [DB]2 [DG]2 [DE]2 | c2- [C=Ec-]2 [CEc]2 [CEc]2 | [F=Acf]2 [FAc]2 [FB_d]2 B2 | %29
w: |||
 [EBe]2 [EGB]2 [EAc]2 [EAc]2 | [_DA_d]2 [=DAc]>B [EAc]2 [DEGB]2 | [CEA]8 |] %32
w: |||
V:2
 [CE]2 [CE]2 [CE]2 [CEB]>A | x8 | x8 | x8 | [_DG]2 [DG]2 [DG]2 [DGc]>B | x8 | x8 | x8 | %8
 [CE]2 [CE]2 [CE]2 [CEB]>A | x8 | C2 z A [=B,G]2 [B,F]2 | x8 | =B,2 B,2 B,2 D>E | x8 | x8 | x8 | %16
 x8 | D2 z2 z4 | x8 | C2 C2 C2 E2 | x8 | [CE]2 [C=E]2 z4 | x8 | x8 | x8 | D2 z2 z4 | x8 | %27
 [C=E]2 z2 z4 | x8 | x8 | x8 | x8 |] %32
V:3
 x8 | x8 | x8 | x8 | x8 | x8 | x8 | x8 | x8 | x8 | z2 C2 z4 | x8 | x8 | x8 | x8 | x8 | x8 | x8 | %18
 x8 | x8 | x8 | x8 | x8 | x8 | x8 | x8 | x8 | x8 | x8 | x8 | x8 | x8 |] %32
V:4
 [A,,E,]2 [E,,E,]2 [A,,E,]2 [E,,E,]2 | [A,,E,]2 [A,,E,]2 [A,,D,]2 [A,,D,]2 | %2
 [A,,E,]2 [A,,E,]2 [G,,E,]2 [A,,E,]2 | [B,,E,]2 [E,,E,]2 [B,,E,]2 [E,,E,]2 | %4
 [B,,E,]2 [E,,E,]2 [B,,E,]2 [E,,E,]2 | [B,,E,]2 [E,,E,]2 [B,,E,]2 [E,,E,]2 | %6
 [A,,E,]2 [C,A,]2 [B,,B,]2 [B,,F,]2 | G,6 z2 | [A,,E,]2 [E,,E,]2 [A,,E,]2 [E,,E,]2 | %9
 [A,,E,]2 [A,,E,]2 [A,,D,]2 [A,,D,]2 | E,2 [G,,E,]2 [G,,D,]2 [G,,G,]2 | %11
 [C,G,]2 [G,,G,]2 [C,G,]2 [G,,G,]2 | [=B,,_G,]2 [B,,G,]2 [B,,G,]2 z2 | %13
 [B,,G,]2 [B,,G,]2 [=A,,_G,]2 [A,,G,]2 | [B,,G,]2 [B,,F,]2 [B,,B,]2 [B,,A,]2 | %15
 [E,G,]2 _D,2 E,,2 z2 | C2 =B,2 _B,2 A,2 | [F,A,]2 [B,,A,]2 [F,A,]2 [B,,A,]2 | %18
 [E,G,]2 [E,G,]2 [E,B,]2 [E,G,]2 | [A,,A,]2 [E,,E,]2 [A,,A,]2 [C,A,]2 | %20
 [B,,G,]2 [B,,G,]2 [E,G,]2 [E,G,]2 | [A,,A,]2 [C,,C,]2 [F,,F,]2 [=A,,=A,]2 | %22
 [B,,B,]2 [B,,B,]2 [B,,B,]2 [B,,A,]2 | [E,G,]2 B,,2 E,,2 z2 | C2 =B,2 _B,2 A,2 | %25
 [F,A,]2 [B,,A,]2 [F,A,]2 [B,,A,]2 | [E,G,]2 [E,G,]2 [E,B,]2 [E,G,]2 | %27
 [C,,C,]2 [=E,,=E,]2 [G,,G,]2 [C,,C,]2 | [F,,F,]2 [=A,,=A,]2 [B,,B,]2 [B,,B,][_A,,_A,] | %29
 [G,,G,]2 [E,,E,]2 [A,,A,]2 [_G,,_G,]2 | [F,,F,]2 [B,,,B,,]2 [E,,E,]2 [E,,E,]2 | %31
 [A,,A,]2 [E,,E,]2 [A,,,A,,]4 |] %32
V:5
 x8 | x8 | x8 | x8 | x8 | x8 | x8 | E,2 _D,2 C,2 B,,2 | x8 | x8 | x8 | x8 | x8 | x8 | x8 | x8 | %16
 x8 | x8 | x8 | x8 | x8 | x8 | x8 | x8 | x8 | x8 | x8 | x8 | x8 | x8 | x8 | x8 |] %32

